X:5
T:Ghost Of Ballybrolly, The
R:jig
M:6/8
L:1/8
K:Emin
ABB eze-|edB A3-|AGE ~G2B|E B/2c/2d edB|
~B3 eBe|edB ~A3|AGE ~G3|AED E2z|
ABB eBe|edB ~A3|AGE ~G2B|E B/2c/2d ~e3|
ged BAB|edB A2A|AGE ~G3|AED E2z|
cG ~E3 c|BGA E2d|AFD DEF|GAB dBe|
cG ~E3 c|BGA E2d|AFD DEF|~E3 FGA|
cG ~E3 c|BGA E2d|AFD DEF|GAB dBe-|
edB e2g|deB- Bed|BAA ABd|ez2 g3|
